X:1
T:Kullerullvisan
R:Gnglt
Z:Klas Krantz, 2006
O:Leksand, Dalarna
S:efter Knis Karl Aronsson
M:2/4
L:1/16
R:Gnglt
K:G
|: D2 | "G"G2>D2 G2A2 | B2>A2 GABc | d2>e2 d2c2 | B2>G2 g2f2 |
"C"e2>d2 c2B2 | "A7"A2g2 f2e2 | "D"d8- | d4z2 :|]
|:GB | "G"d2g2 gagf | "(G7)"g2B2 c2d2 | "C"egec "G"dedB | "Em"G2>B2 BcBG |
"Am"A2c2 e2fe | "D7"d2A2 cdcB | "G"G8- | G4z2 :|]
